X:0822
T:Major McLean's Reel.
M:C
L:1/8
Q:1/2=104
I: :: ||
Z:Jack Campin * www.campin.me.uk * 2009
K:G Dorian
 A|GGBG B/c/d g2|f2cf AFcA|GABc defd|dgg^f gGG:|
^f|ggdg fadf    |caBg AFFf|ggdg fadf|dgg^f gGG
^f|ggdg fadf    |caBg AFFA|GABc defd|dgg^f gGG|]
% As in the book (with confused key signature):
% K:G
% A|GGBG  B/c/d g2|=f2 cf AFcA|GA_Bc de=fd|dggf gGG:|
% f|ggdg =fadf    | ca_Bg AFFf|ggdg =fadf |dggf gGG
% f|ggdg =fadf    | ca_Bg AFFA|GA_Bc defd |dggf gGG|]

